X: 31628
T: Papa's Pet
R: reel
M: 4/4
K: Adorian
|:E~A3 B~G3|BGdG eGdG|E~A3 B~G3|BGdB cAAG|
E~A3 B~G3|B~d3 edBe|eBde gbaf|1 gedB (3cBA BG:|2 gedB degf||
|:e~a3 egdB|(3ABA GA B~d3|ea (3bag a2 ga|b~g3 bgag|
abga egdB|ABGA B~d3|e3 f g2 (3agf|1 gedB degf:|2 gedB (3cBA BG||

